X: 4150
T: MISS BRANDER
R: Reel.
%R: reel
B: James Kerr "Merry Melodies" v.4 p.18 #150
Z: 2016 John Chambers <jc:trillian.mit.edu>
M: C|
L: 1/8
K: Dm
uD |\
(D/E/F) (ED) dfed | cAGF ECCE |\
(D/E/F) (ED) dfed | cAGE ADD ::\
e |\
fede (f/g/a) (gf) |
ecgc acgc |\
[1 fede (f/g/a) (ge) | fde^c dDD :|\
[2 fa^ga fd^cA | dfe^c dDD |]

%%sep 1 1 500
%%sep 1 1 500

